X: 131
T:Keshoshana
O:Israel
C:Yosef Hadar 1960
D:Potpourri Israeli folk dances
M:2/4
L:1/8
K:Dmin
Q:1/4=144
%%MIDI program 21 Accordian
CF2G|A2A2|ABAG    |G2G2 |\
CFEF|D2D2|CFEF    |D2D2::
G2z2|GAF2|E/F/G2 E|F2z2 |\
G2z2|GAF2|E/F/G2 E|D2z2 :|



